packages/kaspersky-hexa-ui-icons/src/iconsSVGs/24/Facebook.svg

<svg width="24" height="24" viewBox="0 0 24 24" fill="none" xmlns="http://www.w3.org/2000/svg">
<path d="M12 2C6.47727 2 2 6.50029 2 12.0514C2 17.0908 5.69318 21.2516 10.5055 21.9785V14.7155H8.03136V12.0733H10.5055V10.3152C10.5055 7.40445 11.9164 6.12656 14.3232 6.12656C15.4759 6.12656 16.0855 6.21245 16.3741 6.25174V8.55808H14.7323C13.7105 8.55808 13.3536 9.5317 13.3536 10.6291V12.0733H16.3482L15.9418 14.7155H13.3536V22C18.2345 21.3343 22 17.1397 22 12.0514C22 6.50029 17.5227 2 12 2Z" fill="black"/>
</svg>

<svg xmlns="http://www.w3.org/2000/svg" width="24" height="24" fill="none" viewBox="0 0 24 24"><path fill="#000" d="M12 2C6.4773 2 2 6.5003 2 12.0514c0 5.0394 3.6932 9.2002 8.5055 9.9271v-7.263H8.0314v-2.6422h2.4741v-1.7581c0-2.9108 1.4109-4.1886 3.8177-4.1886 1.1527 0 1.7623.0858 2.0509.1251v2.3064h-1.6418c-1.0218 0-1.3787.9736-1.3787 2.071v1.4442h2.9946l-.4064 2.6422h-2.5882V22C18.2345 21.3343 22 17.1397 22 12.0514 22 6.5003 17.5227 2 12 2"/></svg>
